images/conversation-img.svg

<svg width="52" height="51" viewBox="0 0 52 51" fill="none" xmlns="http://www.w3.org/2000/svg">
<path d="M46.0321 49.3H5.11421C4.64344 49.3 4.26175 49.6806 4.26175 50.15C4.26175 50.6195 4.64344 51 5.11421 51H46.0321C46.5029 51 46.8845 50.6195 46.8845 50.15C46.8845 49.6806 46.5029 49.3 46.0321 49.3Z" fill="#FFBB01"/>
<path d="M9.37702 30.5999C11.7308 30.5999 13.6393 32.5029 13.6393 34.8499V38.2499C13.6393 38.7193 14.021 39.0999 14.4918 39.0999C14.9625 39.0999 15.3442 38.7193 15.3442 38.2499V34.8499C15.345 32.2182 13.6114 29.8985 11.0819 29.1464V27.1148C13.0666 26.711 14.4922 24.9699 14.4918 22.9499V18.5895C15.9965 18.2019 17.0479 16.8492 17.0491 15.2999V12.7499C17.0491 12.2805 16.6674 11.8999 16.1967 11.8999H6.81965C3.99505 11.8999 1.70491 14.1834 1.70491 16.9999V20.3999C1.70616 21.9493 2.75758 23.3019 4.26228 23.6895V29.1464C1.7328 29.8985 -0.000832177 32.2182 2.99681e-07 34.8499V46.7499C2.99681e-07 47.2193 0.381691 47.5999 0.852456 47.5999C1.32322 47.5999 1.70491 47.2193 1.70491 46.7499V34.8499C1.70491 32.5029 3.61336 30.5999 5.96719 30.5999H9.37702ZM12.7868 22.9499C12.7868 24.3581 11.6418 25.4999 10.2295 25.4999H5.96719V23.7999H6.81965C7.76118 23.7999 8.52456 23.0387 8.52456 22.0999V18.6999H12.7868V22.9499ZM3.40982 20.3999V16.9999C3.40982 15.1223 4.93659 13.5999 6.81965 13.5999H15.3442V15.2999C15.3442 16.2387 14.5808 16.9999 13.6393 16.9999H7.6721C7.20134 16.9999 6.81965 17.3805 6.81965 17.8499V22.0999H5.11474C4.17321 22.0999 3.40982 21.3387 3.40982 20.3999ZM5.96719 27.1999H9.37702V28.8999H5.96719V27.1999Z" fill="#FFBB01"/>
<path d="M48.5901 24.65V22.3719C50.6713 21.3878 51.9983 19.2968 52 17V16.15C52 12.8637 49.3285 10.2 46.0328 10.2H37.5082C36.3015 10.1942 35.149 10.6989 34.3365 11.5883C33.524 12.4777 33.1277 13.6689 33.2459 14.8667C33.4674 16.7066 34.8376 18.2028 36.6557 18.5896V22.95C36.6553 24.97 38.0809 26.7111 40.0656 27.1149V29.1465C37.5361 29.8986 35.8025 32.2183 35.8033 34.85V38.25C35.8033 38.7194 36.185 39.1 36.6557 39.1C37.1265 39.1 37.5082 38.7194 37.5082 38.25V34.85C37.5082 32.503 39.4167 30.6 41.7705 30.6H45.1803C47.5341 30.6 49.4426 32.503 49.4426 34.85V46.75C49.4426 47.2194 49.8243 47.6 50.295 47.6C50.7658 47.6 51.1475 47.2194 51.1475 46.75V34.85C51.1483 32.2183 49.4147 29.8986 46.8852 29.1465V27.0556C47.9075 26.6953 48.5906 25.7312 48.5901 24.65ZM34.9508 14.7048C34.8863 13.9889 35.1277 13.2792 35.6156 12.75C36.0976 12.2125 36.7852 11.9037 37.5082 11.9H46.0328C48.3866 11.9 50.295 13.803 50.295 16.15V17C50.2938 18.7722 49.1895 20.3577 47.5246 20.9782H47.4563C47.0588 21.1193 46.6421 21.1994 46.2205 21.216H44.3279C43.8571 21.216 43.4754 20.8354 43.4754 20.366V17.85C43.4754 17.3806 43.0937 17 42.6229 17H37.6531C36.2986 17.0299 35.1365 16.0433 34.9508 14.7048ZM38.3607 22.95V18.7H41.7705V20.4C41.7705 21.8082 42.9156 22.95 44.3279 22.95H46.2883C46.4931 22.95 46.6892 22.95 46.8852 22.899V24.65C46.8852 25.1194 46.5035 25.5 46.0328 25.5H40.918C39.5057 25.5 38.3607 24.3582 38.3607 22.95ZM41.7705 28.9V27.2H45.1803V28.9H41.7705Z" fill="#FFBB01"/>
<path d="M46.0321 34.8501C45.5613 34.8501 45.1796 35.2307 45.1796 35.7001V43.3501C45.1796 44.7583 44.0346 45.9001 42.6223 45.9001H34.0977V42.5001H40.9174C41.3881 42.5001 41.7698 42.1195 41.7698 41.6501V35.7001C41.7698 35.2307 41.3881 34.8501 40.9174 34.8501C40.4466 34.8501 40.0649 35.2307 40.0649 35.7001V40.8001H31.5403C30.3228 40.8013 29.1982 41.4501 28.59 42.5018C27.9819 43.5535 27.9819 44.8488 28.5909 45.9001H22.5554C23.1644 44.8488 23.1644 43.5535 22.5563 42.5018C21.9481 41.4501 20.8235 40.8013 19.606 40.8001H11.0814V35.7001C11.0814 35.2307 10.6997 34.8501 10.2289 34.8501C9.75818 34.8501 9.37648 35.2307 9.37648 35.7001V41.6501C9.37648 42.1195 9.75818 42.5001 10.2289 42.5001H17.0486V45.9001H8.52403C7.11173 45.9001 5.96666 44.7583 5.96666 43.3501V35.7001C5.96666 35.2307 5.58497 34.8501 5.11421 34.8501C4.64344 34.8501 4.26175 35.2307 4.26175 35.7001V43.3501C4.26175 45.6972 6.1702 47.6001 8.52403 47.6001H42.6223C44.9761 47.6001 46.8845 45.6972 46.8845 43.3501V35.7001C46.8845 35.2307 46.5029 34.8501 46.0321 34.8501ZM18.7535 45.9001V42.5001H19.606C20.5475 42.5001 21.3109 43.2613 21.3109 44.2001C21.3109 45.1389 20.5475 45.9001 19.606 45.9001H18.7535ZM29.8354 44.2001C29.8354 43.2613 30.5988 42.5001 31.5403 42.5001H32.3928V45.9001H31.5403C30.5988 45.9001 29.8354 45.1389 29.8354 44.2001Z" fill="#FFBB01"/>
<path d="M9.37719 10.2H27.2788C29.1618 10.2 30.6886 8.67764 30.6886 6.8V2.55C30.6886 1.14177 29.5435 0 28.1312 0H16.1968C14.7846 0 13.6395 1.14177 13.6395 2.55V3.90137L8.77198 8.74654C8.53015 8.991 8.45939 9.35665 8.593 9.67291C8.7237 9.99041 9.03297 10.1983 9.37719 10.2ZM15.0971 4.85347C15.2566 4.69326 15.3456 4.47578 15.3444 4.25V2.55C15.3444 2.08059 15.7261 1.7 16.1968 1.7H28.1312C28.602 1.7 28.9837 2.08059 28.9837 2.55V6.8C28.9837 7.73882 28.2203 8.50001 27.2788 8.50001H11.4317L15.0971 4.85347Z" fill="#FFBB01"/>
<path d="M21.311 4.25H17.9016C17.4309 4.25 17.0493 4.63059 17.0493 5.1C17.0493 5.56941 17.4309 5.95 17.9016 5.95H21.311C21.7817 5.95 22.1634 5.56941 22.1634 5.1C22.1634 4.63059 21.7817 4.25 21.311 4.25Z" fill="#FFBB01"/>
<path d="M26.426 4.25H24.7212C24.2505 4.25 23.8689 4.63059 23.8689 5.1C23.8689 5.56941 24.2505 5.95 24.7212 5.95H26.426C26.8967 5.95 27.2783 5.56941 27.2783 5.1C27.2783 4.63059 26.8967 4.25 26.426 4.25Z" fill="#FFBB01"/>
<path d="M20.4591 18.7C19.0468 18.7 17.9017 19.8417 17.9017 21.25V29.7499C17.9017 31.1582 19.0468 32.2999 20.4591 32.2999H25.173L29.1797 37.0941C29.4099 37.3692 29.7882 37.4713 30.1258 37.3489C30.4634 37.2273 30.6886 36.9077 30.6886 36.5499V32.2999C32.1009 32.2999 33.2459 31.1582 33.2459 29.7499V21.25C33.2459 19.8417 32.1009 18.7 30.6886 18.7H20.4591ZM31.541 21.25V29.7499C31.541 30.2194 31.1593 30.5999 30.6886 30.5999H29.8361C29.3654 30.5999 28.9837 30.9805 28.9837 31.4499V34.2041L26.2302 30.9058C26.0679 30.7116 25.8273 30.5995 25.5738 30.5999H20.4591C19.9883 30.5999 19.6066 30.2194 19.6066 29.7499V21.25C19.6066 20.7805 19.9883 20.4 20.4591 20.4H30.6886C31.1593 20.4 31.541 20.7805 31.541 21.25Z" fill="#FFBB01"/>
<path d="M22.1639 23.8001H24.721C25.1917 23.8001 25.5733 23.4195 25.5733 22.9501C25.5733 22.4807 25.1917 22.1001 24.721 22.1001H22.1639C21.6932 22.1001 21.3116 22.4807 21.3116 22.9501C21.3116 23.4195 21.6932 23.8001 22.1639 23.8001Z" fill="#FFBB01"/>
<path d="M28.1304 27.2H22.1639C21.6932 27.2 21.3116 27.5805 21.3116 28.05C21.3116 28.5194 21.6932 28.9 22.1639 28.9H28.1304C28.6011 28.9 28.9827 28.5194 28.9827 28.05C28.9827 27.5805 28.6011 27.2 28.1304 27.2Z" fill="#FFBB01"/>
<path d="M28.9833 23.8H27.2786C26.8079 23.8 26.4262 24.1806 26.4262 24.65C26.4262 25.1195 26.8079 25.5 27.2786 25.5H28.9833C29.454 25.5 29.8356 25.1195 29.8356 24.65C29.8356 24.1806 29.454 23.8 28.9833 23.8Z" fill="#FFBB01"/>
</svg>

<svg width="52" height="51" fill="none" xmlns="http://www.w3.org/2000/svg"><path d="M46.032 49.3H5.114a.851.851 0 100 1.7h40.918a.851.851 0 100-1.7zM9.377 30.6a4.256 4.256 0 014.262 4.25v3.4c0 .47.382.85.853.85.47 0 .852-.38.852-.85v-3.4a5.952 5.952 0 00-4.262-5.704v-2.031a4.253 4.253 0 003.41-4.165v-4.36a3.402 3.402 0 002.557-3.29v-2.55c0-.47-.382-.85-.852-.85H6.82c-2.825 0-5.115 2.283-5.115 5.1v3.4a3.402 3.402 0 002.557 3.29v5.456A5.952 5.952 0 000 34.85v11.9a.851.851 0 001.705 0v-11.9a4.256 4.256 0 014.262-4.25h3.41zm3.41-7.65a2.554 2.554 0 01-2.558 2.55H5.968v-1.7h.853c.941 0 1.705-.761 1.705-1.7v-3.4h4.262v4.25zM3.41 20.4V17c0-1.878 1.527-3.4 3.41-3.4h8.524v1.7c0 .939-.763 1.7-1.705 1.7H7.672c-.47 0-.852.38-.852.85v4.25H5.115a1.703 1.703 0 01-1.705-1.7zm2.557 6.8h3.41v1.7h-3.41v-1.7zM48.59 24.65v-2.278A5.949 5.949 0 0052 17v-.85c0-3.286-2.672-5.95-5.967-5.95h-8.525a4.268 4.268 0 00-3.172 1.388 4.242 4.242 0 00-1.09 3.279 4.34 4.34 0 003.41 3.723v4.36a4.253 4.253 0 003.41 4.165v2.032a5.952 5.952 0 00-4.263 5.703v3.4c0 .47.382.85.853.85.47 0 .852-.38.852-.85v-3.4a4.256 4.256 0 014.262-4.25h3.41a4.256 4.256 0 014.263 4.25v11.9a.851.851 0 001.705 0v-11.9a5.952 5.952 0 00-4.263-5.704v-2.09a2.55 2.55 0 001.705-2.406zm-13.64-9.945a2.546 2.546 0 01.666-1.955 2.56 2.56 0 011.892-.85h8.525a4.256 4.256 0 014.262 4.25V17a4.25 4.25 0 01-2.77 3.978h-.069a4.187 4.187 0 01-1.236.238h-1.892a.851.851 0 01-.853-.85V17.85c0-.47-.381-.85-.852-.85h-4.97a2.666 2.666 0 01-2.702-2.295zm3.41 8.245V18.7h3.41v1.7a2.554 2.554 0 002.558 2.55h1.96c.205 0 .401 0 .597-.051v1.751c0 .47-.381.85-.852.85h-5.115a2.554 2.554 0 01-2.557-2.55zm3.41 5.95v-1.7h3.41v1.7h-3.41z" fill="#FFBB01"/><path d="M46.032 34.85c-.47 0-.852.38-.852.85v7.65a2.554 2.554 0 01-2.558 2.55h-8.524v-3.4h6.82c.47 0 .852-.38.852-.85V35.7c0-.47-.382-.85-.853-.85-.47 0-.852.38-.852.85v5.1H31.54a3.412 3.412 0 00-2.95 1.702 3.391 3.391 0 000 3.398h-6.035a3.391 3.391 0 00.001-3.398 3.412 3.412 0 00-2.95-1.702h-8.525v-5.1a.851.851 0 00-1.705 0v5.95c0 .47.382.85.853.85h6.82v3.4H8.524a2.554 2.554 0 01-2.557-2.55V35.7c0-.47-.382-.85-.853-.85-.47 0-.852.38-.852.85v7.65a4.256 4.256 0 004.262 4.25h34.098a4.256 4.256 0 004.263-4.25V35.7c0-.47-.382-.85-.853-.85zM18.754 45.9v-3.4h.852c.941 0 1.705.761 1.705 1.7s-.764 1.7-1.705 1.7h-.853zm11.081-1.7c0-.939.764-1.7 1.705-1.7h.853v3.4h-.853a1.703 1.703 0 01-1.705-1.7zM9.377 10.2H27.28a3.405 3.405 0 003.41-3.4V2.55A2.554 2.554 0 0028.13 0H16.197a2.554 2.554 0 00-2.557 2.55v1.351L8.771 8.747a.848.848 0 00-.179.926c.13.317.44.525.784.527zm5.72-5.347a.85.85 0 00.247-.603v-1.7c0-.47.382-.85.853-.85H28.13c.471 0 .853.38.853.85V6.8c0 .939-.764 1.7-1.705 1.7H11.432l3.665-3.647z" fill="#FFBB01"/><path d="M21.311 4.25h-3.41a.851.851 0 100 1.7h3.41c.47 0 .852-.38.852-.85s-.381-.85-.852-.85zM26.426 4.25h-1.705a.851.851 0 100 1.7h1.705a.851.851 0 100-1.7zM20.46 18.7a2.554 2.554 0 00-2.558 2.55v8.5a2.554 2.554 0 002.557 2.55h4.714l4.007 4.794a.854.854 0 001.509-.544V32.3a2.554 2.554 0 002.557-2.55v-8.5a2.554 2.554 0 00-2.557-2.55h-10.23zm11.081 2.55v8.5c0 .47-.382.85-.852.85h-.853c-.47 0-.852.38-.852.85v2.754l-2.754-3.298a.854.854 0 00-.656-.306h-5.115a.851.851 0 01-.852-.85v-8.5c0-.47.381-.85.852-.85h10.23c.47 0 .852.38.852.85z" fill="#FFBB01"/><path d="M22.164 23.8h2.557a.851.851 0 100-1.7h-2.557a.851.851 0 100 1.7zM28.13 27.2h-5.966a.851.851 0 100 1.7h5.966a.851.851 0 100-1.7zM28.983 23.8H27.28a.851.851 0 100 1.7h1.704a.851.851 0 100-1.7z" fill="#FFBB01"/></svg>
